!!!COM: Richard Strauss
!!!CNT: Deutscher
!!!TXO: Deutsche 
!!!OTL: Seitdem dein Aug' in meines schaute
!!!OPS: Opus 17
!!!ONM: No. 1
!!!LYR: A.F. von Schack
!!!ENC: Brian Bice
!!!YOR: Lieder, Complete Edition, vol. 1
!!!ODT: 1886/
!!NB: Vocal melody and text only encoded.
**kern	**silbe
*clefG2	*
*k[b-e-a-d-g-]	*
*M3/4	*
=0	=0
4.r	.
{8a-	{Seit-
4a-	-dem
=1	=1
4dd-	dein
4.f	Aug'
8b-	in
=2	=2
8.a-	mei-
16f	-nes
4f	schau-
4e-}	-te}
=3	=3
8r	.
{8d-	{und
8.ff	Lie-
16ee-	-be,
8dd-	wie
8a-	vom
=4	=4
8ff	Him-
8ee-	-mel
8ddn}	her}
{8cc	{aus
8b-	ihm
8f	auf
=5	=5
2dn	mich
4b-	ner-
=6	=6
8.a-	-nie-
16gn	-dert
4g-	hau-
4g-}	-te.}
=7	=7
8r	.
{8an	{was
8b-	bo2-
8cc	-te
[4f	mir
=8	=8
8f]	|
8an	die
(8b-	Er-
4cc)	|
8f	-de
=9	=9
[2.dd-	mehr?
=10	=10
4dd-]}	|}
4r	.
{(8.d-	{Ihr
16dd-)	|
=11	=11
(2.dd-	Be-
=12	=12
4a-)	|
4an	-stes
8b-	hat
8b-	sie
=13	=13
[2gg-	mir
8gg-]	|
8ff-	ge-
=14	=14
2ff-	-ge-
4ee-}	-ben,}
=16	=16
8r	,
{8g-	{und
8a-	von
8b-	des
[4ee-	Her-
=17	=17
8ee-]	|
8ee-	-zens
(8ee-	stil-
4dd-)	|
8cc-	-lem
=18	=18
2ff-}	Glu2ck}
{4cc-	{ward
=19	=19
8.gg-	u2-
16ff-	-ber-
4.cc-	-voll
8a-	mein
=20	=20
2aa-	gan-
4gg-	-zes
=21	=21
(2gg-	Le-
[4ff	|
=22	=22
4ff])	|
4ee-}	-ben}
8r	.
{8dd-	{durch
=23	=23
2ff	je-
4dd-	-nen
=24	=24
2dd-	ei-
4f	-nen
=25	=25
([4b-	Au-
8b-]	|
4a-)	|
8c	-gen-
=26	=26
2d-}	-blick.}
4r	.
*-	*-
